X: 11617
T: Eibhlí Gheal Chiúin Ní Chearbhaill
R: waltz
M: 3/4
K: Dmixolydian
|:D2|"D"D3 E G2|"D"A4 G A|"G"B3 A G2|"D"A4 G A|"G"B3 A G2|"Em"E4 D2|"D"(D6|D4):|
|:D2|"D"A3 B c2|"D"d3 e d2|"D"d3 c B2|"Am"A2 G2 E2|"D"A3 B c2|"D"d3 e d2|"C"c6|
"G"B2 A2 G2|"D"A3 B c2|"D"d3 e d2|"D"d2 c2 B2|"Am"A2 G2 A2|"G"B3 A G2|"Em"E4 D2|"D"(D6|D4):|

